svgs/thin/calendar-lines.svg

<svg xmlns="http://www.w3.org/2000/svg" viewBox="0 0 448 512"><!--! Font Awesome Pro 6.6.0 by @fontawesome - https://fontawesome.com License - https://fontawesome.com/license (Commercial License) Copyright 2024 Fonticons, Inc. --><path d="M120 0c4.4 0 8 3.6 8 8l0 56 192 0 0-56c0-4.4 3.6-8 8-8s8 3.6 8 8l0 56 48 0c35.3 0 64 28.7 64 64l0 48 0 16 0 256c0 35.3-28.7 64-64 64L64 512c-35.3 0-64-28.7-64-64L0 192l0-16 0-48C0 92.7 28.7 64 64 64l48 0 0-56c0-4.4 3.6-8 8-8zM432 192L16 192l0 256c0 26.5 21.5 48 48 48l320 0c26.5 0 48-21.5 48-48l0-256zM112 120l0-40L64 80c-26.5 0-48 21.5-48 48l0 48 416 0 0-48c0-26.5-21.5-48-48-48l-48 0 0 40c0 4.4-3.6 8-8 8s-8-3.6-8-8l0-40L128 80l0 40c0 4.4-3.6 8-8 8s-8-3.6-8-8zM96 392c0-4.4 3.6-8 8-8l144 0c4.4 0 8 3.6 8 8s-3.6 8-8 8l-144 0c-4.4 0-8-3.6-8-8zm8-104l240 0c4.4 0 8 3.6 8 8s-3.6 8-8 8l-240 0c-4.4 0-8-3.6-8-8s3.6-8 8-8z"/></svg>

<svg xmlns="http://www.w3.org/2000/svg" viewBox="0 0 448 512"><!--! Font Awesome Pro 6.4.0 by @fontawesome - https://fontawesome.com License - https://fontawesome.com/license (Commercial License) Copyright 2023 Fonticons, Inc. --><path d="M120 0c4.4 0 8 3.6 8 8V64H320V8c0-4.4 3.6-8 8-8s8 3.6 8 8V64h48c35.3 0 64 28.7 64 64v48 16V448c0 35.3-28.7 64-64 64H64c-35.3 0-64-28.7-64-64V192 176 128C0 92.7 28.7 64 64 64h48V8c0-4.4 3.6-8 8-8zM432 192H16V448c0 26.5 21.5 48 48 48H384c26.5 0 48-21.5 48-48V192zM112 120V80H64c-26.5 0-48 21.5-48 48v48H432V128c0-26.5-21.5-48-48-48H336v40c0 4.4-3.6 8-8 8s-8-3.6-8-8V80H128v40c0 4.4-3.6 8-8 8s-8-3.6-8-8zM96 392c0-4.4 3.6-8 8-8H248c4.4 0 8 3.6 8 8s-3.6 8-8 8H104c-4.4 0-8-3.6-8-8zm8-104H344c4.4 0 8 3.6 8 8s-3.6 8-8 8H104c-4.4 0-8-3.6-8-8s3.6-8 8-8z"/></svg>
